X: 21313
T: O LET ME IN THIS A'E NIGHT
O: Scottish air.
%R: jig
B: W. Hamilton "Universal Tune-Book" Vol. 2 Glasgow 1846 p.131 #3
S: http://s3-eu-west-1.amazonaws.com/itma.dl.printmaterial/book_pdfs/hamiltonvol2web.pdf
Z: 2016 John Chambers <jc:trillian.mit.edu>
M: 6/8
L: 1/8
K: D
% - - - - - - - - - - - - - - - - - - - - - - - - -
A |\
A2A  ABc | d3 def | g3  f3  | fed B2d |\
A>BA ABc | d3 d2b | agf edc | dfe dcB |
A>BA ABc | d3 def | g3  f3  | fed B2d |\
A>BA ABc | d3 d2b | agf edc | d3  d2  |]
% - - - - - - - - - - - - - - - - - - - - - - - - -

%%sep 1 1 500
%%sep 1 1 500

